packages/foundations/assets/icons/functional/images/transportation/train_and_car_16.svg

<svg width="16" height="16" viewBox="0 0 16 16" fill="none" xmlns="http://www.w3.org/2000/svg">
<g clip-path="url(#clip0_187_990)">
<path fill-rule="evenodd" clip-rule="evenodd" d="M2.4084 12.1604C2.9692 12.5644 3.3676 12.8388 3.6028 12.9828C3.9548 13.1996 4.4004 13.3588 4.9292 13.394H5.9996V14.4004H4.402C4.0212 14.4004 3.7028 14.134 3.622 13.7772C3.142 13.4364 2.7276 12.922 2.4084 12.1604ZM10.8356 7.60041C10.9068 7.60121 10.978 7.60121 11.0476 7.60121L11.7853 7.60155C11.8331 7.60167 11.8791 7.60178 11.923 7.60189L12.1597 7.60258C12.1943 7.60269 12.2264 7.60281 12.2557 7.60292L12.3964 7.60361C12.858 7.60761 13.314 7.97241 13.4188 8.38121C13.4892 8.65401 13.638 8.91641 13.866 9.96921L13.9924 10.3988H14.3996V11.9988L14.0956 12.0004C14.0644 12.2772 14.042 12.454 14.0268 12.5316C14.0204 12.5668 14.0108 12.6044 13.9996 12.6428V14.3988H12.3996V13.6732L12.3244 13.7012C11.6828 13.7964 11.0412 13.8444 10.3996 13.8444C9.758 13.8444 9.1164 13.7972 8.4748 13.7012L8.3996 13.674V14.3988H6.7996V12.6476C6.7788 12.57 6.7484 12.3564 6.7068 11.9996H6.3996V10.3996H6.806L6.9324 9.96921L7.3508 8.46841C7.4812 8.02281 7.8692 7.60041 8.498 7.60041H10.8356ZM5.982 1.59961C8.9292 1.59961 10.3612 3.60201 10.398 6.40441V6.79961H8.8268C8.8916 6.57241 9.0868 5.69081 9.122 5.45401C9.2244 4.76281 8.5836 3.80361 8.0556 3.56201C7.5276 3.32041 6.8436 3.19961 6.002 3.19961C5.0788 3.19961 4.3444 3.34521 3.7988 3.63641C3.1804 3.96681 2.7756 4.71721 2.8836 5.45721C3.0404 6.21481 3.1404 6.66601 3.1828 6.81081C3.31 7.24761 3.6596 7.58041 4.0956 7.69001C4.8708 7.82921 5.5068 7.89961 6.002 7.90281C6.2252 7.90441 6.4764 7.88761 6.7412 7.86201C6.6796 7.98121 6.6244 8.10601 6.5844 8.24201L6.1988 9.62441C5.8548 9.71401 5.6004 10.0268 5.6004 10.3988V11.9988C5.6004 12.0684 5.61 12.1348 5.6268 12.1988H5.1292C4.75 12.1988 4.3724 12.0588 4.1204 11.89C3.8684 11.7212 3.2716 11.306 2.8068 10.9628C2.4972 10.734 2.1924 10.494 1.8932 10.2444C1.698 9.19561 1.6004 8.44921 1.6004 8.00601V6.40441C1.6004 3.60121 2.9668 1.59961 5.982 1.59961ZM8.1164 11.11C7.9036 11.0532 7.6836 11.1804 7.6268 11.3932C7.57 11.606 7.6964 11.826 7.91 11.8828L8.6828 12.09C8.8956 12.1468 9.1156 12.0204 9.1724 11.8068C9.2292 11.594 9.1028 11.374 8.8892 11.3172L8.1164 11.11ZM12.6828 11.11L11.91 11.3172C11.6964 11.374 11.57 11.5932 11.6268 11.8068C11.6836 12.0204 11.9028 12.1468 12.1164 12.09L12.8892 11.8828C13.1028 11.826 13.2292 11.6068 13.1724 11.3932C13.1156 11.1796 12.8964 11.0532 12.6828 11.11ZM3.8124 8.63081C3.5244 8.72681 3.3572 9.02041 3.4124 9.31081L3.8636 10.6652C3.994 10.9308 4.3036 11.0652 4.5916 10.9692C4.8796 10.8732 5.0468 10.5796 4.9916 10.2892L4.5404 8.93481C4.41 8.66921 4.1004 8.53481 3.8124 8.63081ZM12.3196 8.79961H8.4796L8.0076 10.3996H12.7996L12.3196 8.79961Z" fill="#1A1C1F"/>
</g>
<defs>
<clipPath id="clip0_187_990">
<rect width="16" height="16" fill="white"/>
</clipPath>
</defs>
</svg>

<svg xmlns="http://www.w3.org/2000/svg" width="16" height="16" fill="none"><g clip-path="url(#a)"><path fill="#1A1C1F" fill-rule="evenodd" d="M2.408 12.16q.842.607 1.195.823c.352.217.797.376 1.326.411H6V14.4H4.403a.8.8 0 0 1-.78-.623c-.48-.34-.894-.855-1.214-1.617m8.428-4.56.212.001h.875l.237.002h.236c.462.005.918.37 1.023.778.07.273.219.535.447 1.588l.126.43h.408v1.6l-.304.001a9 9 0 0 1-.07.532 1 1 0 0 1-.026.11V14.4h-1.6v-.726l-.076.028a13.1 13.1 0 0 1-3.85 0l-.074-.027v.725H6.8v-1.751A7 7 0 0 1 6.707 12H6.4v-1.6h.406l.126-.43.419-1.502c.13-.445.518-.868 1.147-.868zm-4.854-6c2.947 0 4.38 2.002 4.416 4.804V6.8H8.827c.065-.228.26-1.11.295-1.346.102-.691-.538-1.65-1.066-1.892Q7.264 3.2 6.002 3.2q-1.385 0-2.203.436a1.82 1.82 0 0 0-.915 1.821q.234 1.137.299 1.354c.127.437.477.77.913.879q1.162.21 1.906.213c.223.001.474-.015.74-.041a2 2 0 0 0-.158.38L6.2 9.624a.8.8 0 0 0-.599.775v1.6q0 .105.027.2h-.498a1.9 1.9 0 0 1-1.009-.309 43 43 0 0 1-1.313-.927 20 20 0 0 1-.914-.719Q1.6 8.671 1.6 8.006V6.404C1.6 3.601 2.967 1.6 5.982 1.6m2.134 9.51a.4.4 0 0 0-.206.773l.773.207a.4.4 0 0 0 .206-.773zm4.567 0-.773.207a.4.4 0 1 0 .206.773l.773-.207a.4.4 0 1 0-.206-.773m-8.87-2.48a.6.6 0 0 0-.4.68l.45 1.355a.6.6 0 0 0 1.129-.376L4.54 8.935a.6.6 0 0 0-.728-.304m8.507.17H8.48l-.472 1.6H12.8z" clip-rule="evenodd"/></g><defs><clipPath id="a"><path fill="#fff" d="M0 0h16v16H0z"/></clipPath></defs></svg>
